X:178
T:RVW2/2/178 Some Rival
C:Mr. Baker (Snr.), Forest Green, Surrey, 21 December 1904
Z:Transcribed by Simon Furey and Lewis Jones
F:http://www.vwml.org/record/RVW2/1/178
L:1/8
Q:1/4=120
M:3/4
I:linebreak $
K:G
"^(Editorial suggestion  " GA | B2 B2 c2 | A2 A2 B2 | G2 E2 F2 | G4 :| GB | d2 d2 ed | dB G2 Bc |$ 
c2 BA G2 | A4 BA | GF E2 AG | FE D2 dB | B2 cB A2 | G4 |] 



